;  Created by Sandify
;  https://sandify.org
;  Version: 0.2.6
;
;  Machine type: Rectangular
;    Min X (mm): 0
;    Max X (mm): 500
;    Min Y (mm): 0
;    Max Y (mm): 500
;  Content type: shape
;  Layer:
;    Shape: Polygon
;    Name: polygon
;    Number of sides: 4
;    Round corners: false
;    Visible: true
;    Initial width: 22
;    Initial height: 22
;    X offset: -15
;    Y offset: 1
;    Rotate (degrees): 6
;    Reverse path: false
;    Number of loops: 10
;    When transforming shape: smear
;    Scale: true
;      Scale (+/-): 100
;      Scale by: constant
;    Spin: false
;    Track: false
;    Fine tuning:
;      Connect to next layer: line
;      Draw portion of path (%): 100
;      Backtrack at end (%): 0
;      Rotate starting point (%): 0
;  Reverse export path: false
;
; File name: 'initial test gcode'
; File type: gcode
;

G0 X252.097 Y264.845
G0 X217.694 Y272.372
G0 X209.354 Y230.232
G0 X259.229 Y221.080
G0 X269.194 Y278.690
G0 X203.849 Y289.469
G0 X192.257 Y216.387
G0 X273.074 Y203.983
G0 X286.292 Y292.535
G0 X190.004 Y306.566
G0 X175.160 Y202.542
G0 X286.919 Y186.885
G0 X303.389 Y306.380
G0 X176.159 Y323.663
G0 X158.063 Y188.697
G0 X300.764 Y169.788
G0 X320.486 Y320.225
G0 X162.313 Y340.760
G0 X140.965 Y174.852
G0 X314.609 Y152.691
G0 X337.583 Y334.070
G0 X148.468 Y357.858
G0 X123.868 Y161.007
G0 X328.454 Y135.594
G0 X354.680 Y347.915
G0 X134.623 Y374.955
G0 X106.771 Y147.162
G0 X342.299 Y118.497
G0 X371.778 Y361.760
G0 X120.778 Y392.052
G0 X89.674 Y133.317
G0 X356.144 Y101.399
G0 X388.875 Y375.605
G0 X106.933 Y409.149
G0 X72.576 Y119.472
G0 X369.989 Y84.302
G0 X405.972 Y389.450
G0 X93.088 Y426.246
G0 X55.479 Y105.627
G0 X383.834 Y67.205

